X:1
T:Title
%%score { ( 1 3 4 ) | ( 2 5 6 ) }
L:1/8
M:4/4
K:Ab
V:1 treble nm="Grand Piano"
V:3 treble 
V:4 treble 
V:2 bass 
V:5 bass 
V:6 bass 
V:1
 z4 z2[Q:1/4=100] [CE]2 | [CE]3 [DF] [DG][DA] [DB]>[Ec] | [CA]4 [CE]2 [Ec]2 | [DB]3 [DB] FF G>A | %4
 B6 [DE]2 | [CE]3 [DF] [DG][DA] [DB]>[Ec] | [CA]4 [CE]2 [CA]2 | [Ec]3 A BB F>G |[M:3/4] [A,CA]6 | %9
[M:1/4] c2 |[M:4/4] e4 z4 | [EAc]3 [DGB] [A,A]2 A2 | B3 A GABc | d4 B2 B2 | c3 B ABcd | e4 c2 c2 | %16
 e3 f e2 [Ac]2 | [Gd]3 [Ac] [Gd]2 [A=d]2 | [Ae]3 [EA] [Ec]2 d2 |[M:3/4] B3 E [CA]2 |] %20
V:2
 z4 z2 [A,,A,]2 | [A,,A,]3 [A,,A,] [A,,A,][A,,A,] [A,,A,]>[A,,A,] | [A,,A,]4 [A,,A,]2 [A,,A,]2 | %3
 [B,,G,]3 [B,,G,] [D,A,D][D,A,D] [D,B,D]>[D,F,D] | [E,G,D]6 [A,,A,]2 | %5
 [A,,A,]3 [A,,A,] [A,,A,][A,,A,] [A,,A,]>[A,,A,] | [A,,A,]4 [A,,A,]2 [A,,A,]2 | %7
 [A,,A,]3 [C,A,C] [E,G,D][E,G,D] [F,A,D]>[E,B,D] |[M:3/4] A,,6 |[M:1/4][K:treble] A2 | %10
[M:4/4] c4[K:bass] z4 | C,3 E, A,,2[K:treble] C2 | D3 C B,A,G,A, | B,4 G,2 G2 | A3 G z GAB | %15
 c4 A2 [A,EA]2 | [A,CA]3 [A,DA] [A,CA]2[K:bass] [C,A,]2 | [E,B,]3 [E,A,] [E,B,]2 [F,_C]2 | %18
 [A,C]3 [A,,A,] [A,,A,]2 [E,B,E]2 |[M:3/4] [E,G,E]3 [E,G,D] [A,,A,]2 |] %20
V:3
 x8 | x8 | x8 | x8 | x8 | x8 | x8 | x8 |[M:3/4] x6 |[M:1/4] x2 |[M:4/4] z2 z d [EGB]2 E2 | x8 | %12
 x8 | x8 | x8 | x8 | x8 | x8 | x8 |[M:3/4] x6 |] %20
V:4
 x8 | x8 | x8 | x8 | x8 | x8 | x8 | x8 |[M:3/4] x6 |[M:1/4] x2 |[M:4/4] z2 E2 z4 | x8 | x8 | x8 | %14
 x8 | x8 | x8 | x8 | x8 |[M:3/4] x6 |] %20
V:5
 x8 | x8 | x8 | x8 | x8 | x8 | x8 | x8 |[M:3/4] x6 |[M:1/4][K:treble] x2 | %10
[M:4/4] z2 z B[K:bass] E,2 E,2 | x6[K:treble] x2 | x8 | x8 | x8 | x8 | x6[K:bass] x2 | x8 | x8 | %19
[M:3/4] x6 |] %20
V:6
 x8 | x8 | x8 | x8 | x8 | x8 | x8 | x8 |[M:3/4] x6 |[M:1/4][K:treble] x2 | %10
[M:4/4] z2 E,2[K:bass] z4 | x6[K:treble] x2 | x8 | x8 | x8 | x8 | x6[K:bass] x2 | x8 | x8 | %19
[M:3/4] x6 |] %20

